icons/charmap.svg

<svg xmlns="http://www.w3.org/2000/svg" viewBox="0 0 48 48"><defs><style>.a,.b,.c,.d{fill:none;stroke:#fff;}.a,.b{stroke-linecap:square;}.a{stroke-width:1px;}.d{stroke-linecap:round;stroke-linejoin:round;}</style></defs><path class="a" d="M10.3,5.5H37.6a4.23,4.23,0,0,1,4.2,4.2V38.4a4.23,4.23,0,0,1-4.2,4.2H10.3a4.23,4.23,0,0,1-4.2-4.2V9.7A4.29,4.29,0,0,1,10.3,5.5Z"/><path class="b" d="M12.8,8.2H35.5a3.33,3.33,0,0,1,3.3,3.3V34.2a3.33,3.33,0,0,1-3.3,3.3H12.8a3.33,3.33,0,0,1-3.3-3.3V11.5A3.4,3.4,0,0,1,12.8,8.2Z"/><path class="c" d="M10.3,9.5,6.9,6.7"/><path class="c" d="M37.6,9.1l3-2.6"/><path class="c" d="M37.6,36.5c.1.3,3.1,4.5,3.1,4.5"/><path class="c" d="M10.6,36.8,7.2,41.2"/><path class="d" d="M31.8,26.3A3.69,3.69,0,0,1,28.1,30h0a3.69,3.69,0,0,1-3.7-3.7V23.9a3.69,3.69,0,0,1,3.7-3.7h0a3.69,3.69,0,0,1,3.7,3.7"/><path class="d" d="M33.3,30a1.54,1.54,0,0,1-1.5-1.5V20.1"/><line class="d" x1="26.9" y1="18.1" x2="29.3" y2="17.3"/></svg>

<?xml version="1.0" encoding="utf-8"?>
<!-- Generator: Adobe Illustrator 25.1.0, SVG Export Plug-In . SVG Version: 6.00 Build 0)  -->
<svg version="1.1"
	 id="svg8" inkscape:version="1.0.1 (3bc2e813f5, 2020-09-07)" sodipodi:docname="template.svg" xmlns:cc="http://creativecommons.org/ns#" xmlns:dc="http://purl.org/dc/elements/1.1/" xmlns:inkscape="http://www.inkscape.org/namespaces/inkscape" xmlns:rdf="http://www.w3.org/1999/02/22-rdf-syntax-ns#" xmlns:sodipodi="http://sodipodi.sourceforge.net/DTD/sodipodi-0.dtd" xmlns:svg="http://www.w3.org/2000/svg"
	 xmlns="http://www.w3.org/2000/svg" xmlns:xlink="http://www.w3.org/1999/xlink" x="0px" y="0px" viewBox="0 0 48 48"
	 style="enable-background:new 0 0 48 48;" xml:space="preserve">
<style type="text/css">
	.st0{fill:none;stroke:#FFFFFF;stroke-width:1.0021;stroke-linecap:square;}
	.st1{fill:none;stroke:#FFFFFF;stroke-linecap:square;}
	.st2{fill:none;stroke:#FFFFFF;}
	.st3{fill:none;stroke:#FFFFFF;stroke-linecap:round;stroke-linejoin:round;stroke-miterlimit:10;}
</style>
<sodipodi:namedview  bordercolor="#666666" borderopacity="1" gridtolerance="10" guidetolerance="10" id="namedview10" inkscape:current-layer="svg8" inkscape:cx="33.494668" inkscape:cy="43.471295" inkscape:document-rotation="0" inkscape:guide-bbox="true" inkscape:pageopacity="0" inkscape:pageshadow="2" inkscape:window-height="2098" inkscape:window-maximized="1" inkscape:window-width="3840" inkscape:window-x="0" inkscape:window-y="25" inkscape:zoom="4.1866238" objecttolerance="10" pagecolor="#595959" showgrid="false" showguides="true">
	</sodipodi:namedview>
<g>
	<path id="rect3190" class="st0" d="M10.3,5.5h27.3c2.3,0,4.2,1.9,4.2,4.2v28.7c0,2.3-1.9,4.2-4.2,4.2H10.3c-2.3,0-4.2-1.9-4.2-4.2
		V9.7C6.2,7.4,8,5.5,10.3,5.5z"/>
	<path id="rect3192" class="st1" d="M12.8,8.2h22.7c1.8,0,3.3,1.5,3.3,3.3v22.7c0,1.8-1.5,3.3-3.3,3.3H12.8c-1.8,0-3.3-1.5-3.3-3.3
		V11.5C9.6,9.7,11,8.2,12.8,8.2z"/>
	<path id="path3194" class="st2" d="M10.3,9.5L6.9,6.7"/>
	<path id="path3196" class="st2" d="M37.6,9.1l3-2.6"/>
	<path id="path3198" class="st2" d="M37.6,36.5c0.1,0.3,3.1,4.5,3.1,4.5"/>
	<path id="path3200" class="st2" d="M10.6,36.8l-3.4,4.4"/>
	<g>
		<g>
			<path class="st3" d="M31.8,26.3c0,2.1-1.7,3.7-3.7,3.7h0c-2.1,0-3.7-1.7-3.7-3.7v-2.4c0-2.1,1.7-3.7,3.7-3.7h0
				c2.1,0,3.7,1.7,3.7,3.7"/>
		</g>
		<path class="st3" d="M33.3,30c-0.8,0-1.5-0.7-1.5-1.5v-8.4"/>
	</g>
	<line class="st3" x1="26.9" y1="18.1" x2="29.3" y2="17.3"/>
</g>
</svg>
